X:18
T:Lass of Patty's Mill,The . BC.18
M:C
L:1/8
Q:100
S:Benjamin Cooke MS.circa 1770, F.Kidson Coll.
R:Air
O:England
A:x
P:4
Z:vmp.John Bagnall
K:D
(AG) | (GF) (ED) F2 A2 | d4 A2 d2 | (Bc)(dB) (AF)(ED) | E3 D E2 AF |
 (GF)(ED) F2 A2 | (B/c/d) A4 d2 |(Bc)(dB) (cd)(ef) | d6 |
|fg | (fe)(dc) (dB)(cA) | d4 A2 .B.c | (dc)(BA) BAGF | E3 F E2 fg |
 (af) (ge) (fd) (Bg) | e6 AG | (FA)(GB) (Ac) Be | d6 |
|AG | F2 A2 D2 A2 | d2 AG F3 d | (GB)(dG) FAdF | E3 F E2 (AG) |
 (FG)(AB)D2 (dB) | (cd)(ef) A2 gf|(ed)(cB) (cd)(ef) | d6 |
|ga| (gf)(ed) (ec)(Ac) | (dB)(GB) (AF)(DF) | (GB)(dG) FAdF| E3 F E2 (fg) |
 (ag)(fe) (dc)(Bf) | (gB)(ed) (cB)(AG) | (FA)(GB) (Ac)(Be) | d6 |]
W:Original title, crossed out, "The Flowers of Edenborow?"

